X:1
T:Cantate Domino
T:Giovanni Croce
T:Cantate Domino
C:Giovanni Croce
%%score [ 1 2 3 4 ]
L:1/8
Q:1/2=128
M:4/2
K:Eb
V:1 treble nm="SOPRANO" snm="S."
V:2 treble nm="ALTO" snm="A."
V:3 treble-8 transpose=-12 nm="TENOR" snm="T."
V:4 bass nm="BASS" snm="B."
V:1
 F8 A2 G2 A2 B2 | c6 BA G2 F2 G2 A2 | B4 c4 B4 G4 | A2 G2 A2 B2 c8 | z8 z4 G4 | A2 G2 A2 B2 c6 BA | %6
w: Can- ta- * * *||* te Do- mi-|no, _ _ _ _|can-|ta- * * * * * *|
 G4 F4 G6 G2 | A4 A4 B8- | B4 G4 A4 G4 | G4 A6 A2 F4 | G6 F2 G4 A4- | A2 G2 F8 =E4 | %12
w: * te Do- mi-|no, can- ta-|* te Do- mi-|no can- ti- cum|no- * * *||
 F4 A4 A2 G2 A2 F2 | G4 G4 z8 | z4 c4 c2 B2 c2 A2 | B4 G4 A4 F4 | G4 G4 G4 A4- | A2 G2 F8 =E4 || %18
w: vum, can- ta- * * *|* te,|can- ta- * * *|* te Do- mi-|no om- nis ter-||
[M:3/2] F8 z4 | c4 c4 c4 | B8 A4 | G8 z4 | c4 c4 c4 | B6 B2 B4 | A4 A2 A2 G4 ||[M:4/2] G16 | z16 | %27
w: ra.|Can- ta- te|Do- mi-|no|et be- ne-|di- ci- te|no- mi- ni e-|jus.||
 z8 c8 | B4 c4 A8 | G16 | z8 c8 | B4 c4 A8 | G4 G4 A8 | B4 B4 B8 | G8 B8- | B4 A4 G4 F4 | %36
w: An-|nun- ti- a-|te,|an-|nun- ti- a-|te de di-|e in di-|em sa-|* lu- ta- re|
 G8 G4 G4- | G4 B4 B4 F4 | G16 | G16 | z16 | z8 c8 | B4 c4 A8 | G16 | z8 c8 | B4 c4 A8 | G4 G4 A8 | %47
w: e- jus, sa-|* lu- ta- re|e-|jus.||An-|nun- ti- a-|te,|an-|nun- ti- a-|te de di-|
 B4 B4 B8 | G8 B8- | B4 A4 G4 F4 | G8 G4 G4- | G4 B4 B4 F4 | G16 | G8 =A8 | =A8 B8- | B8 B8 | c16 | %57
w: e in di-|em sa-|* lu- ta- re|e- jus, sa-|* lu- ta- re|e-|jus, sa-|lu- ta-|* te|e-|
 =A16 |] %58
w: jus.|
V:2
 z16 | C8 E2 D2 E2 F2 | G4 C4 D4 E4 | F4 F4 E6 E2 | F4 D4 =E4 E4 | F2 =E2 F2 G2 A6 GF | %6
w: |Can- ta- * * *|* te Do- mi-|no, can ta- te|Do- mi- no, can-|ta- * * * * * *|
 =E4 F4 F4 E4 | F4 F4 G8 | F4 =E4 F4 D4 | E4 F8 C4 | E4 E6 E2 E4 | A,6 B,2 C8 | %12
w: * te Do- mi-|no, can- ta-|* te Do- mi-|no can- ti-|cum, can- ti- cum|no- * *|
 C4 F4 F2 _E2 F2 D2 | E4 C4 z8 | z4 E4 E2 D2 E2 C2 | D4 E4 F4 D4 | E4 E8 E4 | A,6 B,2 C8 || %18
w: vum, can- ta- * * *|* te,|can- ta- * * *|* te Do- mi-|no om- nis|ter- * *|
[M:3/2] C8 z4 | A4 A4 A4 | G8 F4 | =E8 z4 | G4 G4 A4 | F6 F2 G4 | E4 E2 F2 D4 ||[M:4/2] =E16 | %26
w: ra.|Can- ta- te|Do- mi-|no|et be- ne-|di- ci- te|no- mi- ni e-|jus.|
 z16 | z4 C4 E4 F4 | G8 F4 F4 | E8 E8 | z4 C4 E4 F4 | G8 F4 F4 | B,4 E8 F4 | G8 F8 | E8 G8- | %35
w: |An- nun- ci-|a- te de|di- e,|an- nun- ti-|a- te de|di- e in|di- *|em sa-|
 G4 F4 D4 C4 | D8 C8 | G8 F4 F4- | F4 E4 D8 | =E16 | z16 | z4 C4 E4 F4 | G8 F4 F4 | E8 E8 | %44
w: * lu- ta- re|e- jus,|sa- lu- ta-|* re e-|jus.||An- nun- ti-|a- te de|di- e,|
 z4 C4 E4 F4 | G8 F4 F4 | B,4 E8 F4 | G8 F8 | E8 G8- | G4 F4 D4 C4 | D8 C8 | G8 F4 F4- | F4 E4 D8 | %53
w: an- nun- ti-|a- te de|di- e in|di- *|em sa-|* lu- ta- re|e- jus,|sa- lu- ta-|* te e-|
 =E8 F8 | F8 G8 | G8 F8- | F4 =E2 D2 E8 | F16 |] %58
w: jus, sa-|lu- ta-|te e-||jus.|
V:3
 z8 F8 | A2 G2 A2 B2 c6 BA | G4 A4 B4 c4 | c8 z4 c4- | c2 c2 =B4 c8 | c8 z4 c4 | c4 _d4 B4 c4 | %7
w: Can-|ta- * * * * * *|* te Do- mi-|no can-|* ti- cum no-|vum, can-|ta- te Do- mi-|
 F4 c4 e4 =d2 c2 | d4 c4 c4 =B4 | c4 c6 c2 A4 | B12 c4 | F8 G8 | F8 z8 | z4 e4 e2 =d2 e2 c2 | %14
w: no, can ta- * *|* te Do- mi-|no can- ti- cum|no- *||vum,|can- ta- * * *|
 d4 c4 c4 c4 | g8 c4 B2 A2 | B12 c4 | F8 G8 ||[M:3/2] F8 z4 | f4 f4 e4 | e8 c4 | c8 z4 | %22
w: * te Do- mi-|no om- * *|* nis|ter- *|ra.|Can- ta- te|Do- mi-|no|
 =e4 e4 f4 | d6 d2 e4 | c4 c2 c2 =B4 ||[M:4/2] c16 | z8 c8 | d4 e4 c8 | d4 e4 c8 | c8 z4 c4 | %30
w: et be- ne-|di- ci- te|no- mi- ni e-|jus.|An-|nun- ti- a-|te de di-|e, an-|
 d4 e4 c8 | d4 e4 c8 | e4 B4 c8 | d2 B2 e8 d4 | e8 e8- | e4 c4 =B4 c4 | =B8 c4 e4- | e4 d4 d4 c4 | %38
w: nun- ti- a-|te de di-|e in di-||em sa-|* lu- ta- re|e- jus, sa-|* lu- ta- re|
 =B4 c8 B4 | c16 | z8 c8 | d4 e4 c8 | d4 e4 c8 | c8 z4 c4 | d4 e4 c8 | d4 e4 c8 | e4 B4 c8 | %47
w: e- * *|jus.|An-|nun- ti- a-|te de di-|e, an-|nun- ti- a-|te de di-|e in di-|
 d2 B2 e8 d4 | e8 e8- | e4 c4 =B4 c4 | =B8 c4 e4- | e4 d4 d4 c4 | =B4 c8 B4 | c8 c8- | c8 _e8 | %55
w: |em sa-|* lu- ta- re|e- jus, sa-|* lu- ta- re|e- * *|jus sa-|* lu-|
 B8 F8 | G16 | F16 |] %58
w: ta- re|e-|jus.|
V:4
 z16 | z16 | z8 z4 C,4 | F,2 E,2 F,2 G,2 A,4 A,4 | F,4 G,4 C,4 C,4 | F,8 F,8 | z8 z4 C,4 | %7
w: ||Can-|ta- * * * * te|Do- mi- no, can-|ta- te,|can-|
 F,4 F,4 E,2 F,2 G,2 A,2 | B,4 C4 F,4 G,4 | C,4 F,6 F,2 F,4 | E,12 C,4 | _D,8 C,8 | F,8 z8 | %13
w: ta- te Do- * * *|* * * mi-|no can- ti- cum|no- *||vum,|
 z4 C4 C2 B,2 C2 A,2 | B,4 C4 A,4 A,4 | G,8 F,8 | E,12 C,4 | _D,8 C,8 ||[M:3/2] F,8 z4 | %19
w: can- ta- * * *|* te Do- mi-|no om-|* nis|ter- *|ra.|
 F,4 F,4 A,4 | E,8 F,4 | C,8 z4 | C4 C4 F,4 | B,6 B,2 G,4 | A,4 A,2 F,2 G,4 ||[M:4/2] C,16 | %26
w: Can- ta- te|Do- mi-|no|et be- ne-|di- ci- te|no- mi- ni e-|jus.|
 z8 C8 | B,4 C4 A,8 | G,4 C,4 F,8 | C,8 C8 | B,4 C4 A,8 | G,4 C,4 F,8 | E,4 E,4 A,8 | G,6 A,2 B,8 | %34
w: An-|nun- ti- a-|te de di-|e, an-|nun- ti- a-|te de di-|e in di-||
 E,8 E,8- | E,4 F,4 G,4 A,4 | G,8 C,4 C4- | C4 B,4 B,4 A,4 | G,16 | C,16 | z8 C8 | B,4 C4 A,8 | %42
w: em sa-|* lu- ta- re|e- jus, sa-|* lu- ta- re|e-|jus.|An-|nun- ti- a-|
 G,4 C,4 F,8 | C,8 C8 | B,4 C4 A,8 | G,4 C,4 F,8 | E,4 E,4 A,8 | G,6 A,2 B,8 | E,8 E,8- | %49
w: te de di-|e, an-|nun- ti- a-|te de di-|e in di-||em sa-|
 E,4 F,4 G,4 A,4 | G,8 C,4 C4- | C4 B,4 B,4 A,4 | G,16 | C,8 F,8- | F,8 E,8 | E,8 _D,8 | C,16 | %57
w: * lu- ta- re|e- jus, sa-|* lu- ta- re|e-|jus sa-|* lu-|ta- re|e-|
 F,16 |] %58
w: jus.|

